Numix/16/status/indicator-keyboard-Ar-9.svg

<?xml version="1.0" encoding="UTF-8" standalone="no"?>
<svg
   xmlns:dc="http://purl.org/dc/elements/1.1/"
   xmlns:cc="http://creativecommons.org/ns#"
   xmlns:rdf="http://www.w3.org/1999/02/22-rdf-syntax-ns#"
   xmlns:svg="http://www.w3.org/2000/svg"
   xmlns="http://www.w3.org/2000/svg"
   xmlns:sodipodi="http://sodipodi.sourceforge.net/DTD/sodipodi-0.dtd"
   xmlns:inkscape="http://www.inkscape.org/namespaces/inkscape"
   viewBox="0 0 16 16"
   id="svg2"
   version="1.1"
   inkscape:version="0.91 r13725"
   sodipodi:docname="indicator-keyboard-Ar-9.svg">
  <metadata
     id="metadata14">
    <rdf:RDF>
      <cc:Work
         rdf:about="">
        <dc:format>image/svg+xml</dc:format>
        <dc:type
           rdf:resource="http://purl.org/dc/dcmitype/StillImage" />
      </cc:Work>
    </rdf:RDF>
  </metadata>
  <defs
     id="defs12" />
  <sodipodi:namedview
     pagecolor="#ffffff"
     bordercolor="#666666"
     borderopacity="1"
     objecttolerance="10"
     gridtolerance="10"
     guidetolerance="10"
     inkscape:pageopacity="0"
     inkscape:pageshadow="2"
     inkscape:window-width="640"
     inkscape:window-height="480"
     id="namedview10"
     showgrid="false"
     inkscape:zoom="14.75"
     inkscape:cx="8"
     inkscape:cy="8"
     inkscape:window-x="65"
     inkscape:window-y="24"
     inkscape:window-maximized="0"
     inkscape:current-layer="svg2" />
  <path
     style="fill:#ececec;fill-opacity:1"
     d="M 1.5996094 0 C 0.71320937 2.9605947e-16 0 0.71320937 0 1.5996094 L 0 14.400391 C 2.9605947e-16 15.286791 0.71320937 16 1.5996094 16 L 14.400391 16 C 15.286791 16 16 15.286791 16 14.400391 L 16 1.5996094 C 16 0.71320937 15.286791 0 14.400391 0 L 1.5996094 0 z M 4.5703125 4.859375 L 5.109375 4.859375 C 5.331375 5.321375 5.5422344 5.7821406 5.7402344 6.2441406 C 5.9382344 6.7061406 6.1359844 7.1893594 6.3339844 7.6933594 C 6.5379844 8.1913594 6.7450781 8.7231094 6.9550781 9.2871094 C 7.1650781 9.8451096 7.3926719 10.447703 7.6386719 11.095703 L 6.9648438 11.095703 C 6.8508438 10.789703 6.742625 10.496844 6.640625 10.214844 C 6.538625 9.9328435 6.43975 9.6567188 6.34375 9.3867188 L 3.3105469 9.3867188 C 3.2085469 9.6567187 3.1059062 9.9328436 3.0039062 10.214844 C 2.9019062 10.496844 2.7974531 10.789703 2.6894531 11.095703 L 2.0507812 11.095703 C 2.2907812 10.447703 2.5146094 9.8451096 2.7246094 9.2871094 C 2.9346094 8.7231094 3.1398906 8.1913594 3.3378906 7.6933594 C 3.5418906 7.1893594 3.7414531 6.7061406 3.9394531 6.2441406 C 4.1374531 5.7821406 4.3483125 5.321375 4.5703125 4.859375 z M 4.8222656 5.5605469 C 4.5942656 6.0765469 4.37225 6.6027187 4.15625 7.1367188 C 3.94625 7.6707187 3.728 8.2452813 3.5 8.8632812 L 6.1542969 8.8632812 C 5.9262969 8.2452813 5.7042812 7.6707187 5.4882812 7.1367188 C 5.2722813 6.6027188 5.0502656 6.0765469 4.8222656 5.5605469 z M 10.083984 6.3535156 C 10.275984 6.3535156 10.455047 6.3684375 10.623047 6.3984375 C 10.797047 6.4284375 10.918375 6.4582812 10.984375 6.4882812 L 10.867188 6.9921875 C 10.819188 6.9681875 10.720312 6.9439219 10.570312 6.9199219 C 10.426312 6.8899219 10.234141 6.875 9.9941406 6.875 C 9.7421406 6.875 9.5388125 6.8936875 9.3828125 6.9296875 C 9.2328125 6.9656875 9.1319844 6.9955312 9.0839844 7.0195312 L 9.0839844 11.095703 L 8.5 11.095703 L 8.5 6.6582031 C 8.65 6.5922031 8.8570937 6.5269375 9.1210938 6.4609375 C 9.3850937 6.3889375 9.7059841 6.3535156 10.083984 6.3535156 z M 12.650391 8.7539062 C 13.075491 8.7539062 13.398787 8.9047781 13.617188 9.2050781 C 13.839488 9.5014781 13.949219 9.9168718 13.949219 10.451172 C 13.949219 11.266272 13.755234 11.879569 13.365234 12.292969 C 12.975234 12.702469 12.40505 12.908203 11.65625 12.908203 L 11.644531 12.591797 C 11.901931 12.591797 12.139016 12.562406 12.353516 12.503906 C 12.568016 12.445406 12.752203 12.355275 12.908203 12.234375 C 13.068103 12.109575 13.197422 11.952819 13.294922 11.761719 C 13.396322 11.566719 13.4649 11.331594 13.5 11.058594 C 13.3947 11.113194 13.267341 11.162178 13.119141 11.205078 C 12.970941 11.244078 12.812231 11.263672 12.644531 11.263672 C 12.426131 11.263672 12.241944 11.230363 12.089844 11.164062 C 11.937744 11.093863 11.814303 11.001772 11.720703 10.888672 C 11.627103 10.775572 11.558525 10.646247 11.515625 10.498047 C 11.472725 10.349847 11.451172 10.195056 11.451172 10.035156 C 11.451172 9.8869562 11.474684 9.7360844 11.521484 9.5839844 C 11.568284 9.4318844 11.640781 9.2966812 11.738281 9.1757812 C 11.839681 9.0509812 11.965081 8.9490938 12.113281 8.8710938 C 12.265381 8.7930937 12.443691 8.7539062 12.650391 8.7539062 z M 12.65625 9.0878906 C 12.51195 9.0878906 12.390463 9.1153219 12.289062 9.1699219 C 12.187663 9.2206219 12.105369 9.2892 12.042969 9.375 C 11.980569 9.4608 11.933544 9.5587751 11.902344 9.671875 C 11.875044 9.784975 11.861328 9.9025374 11.861328 10.023438 C 11.861328 10.331537 11.929906 10.560784 12.066406 10.708984 C 12.206806 10.857184 12.410587 10.929687 12.679688 10.929688 C 12.859087 10.929688 13.015838 10.910094 13.148438 10.871094 C 13.284938 10.828194 13.412297 10.781163 13.529297 10.726562 C 13.53323 10.679762 13.535156 10.634697 13.535156 10.591797 C 13.539023 10.548897 13.541016 10.499912 13.541016 10.445312 C 13.541016 10.262013 13.5273 10.087628 13.5 9.9238281 C 13.4766 9.7600281 13.429575 9.6169874 13.359375 9.4921875 C 13.293075 9.3673875 13.202944 9.2694188 13.089844 9.1992188 C 12.976744 9.1251188 12.83175 9.0878906 12.65625 9.0878906 z "
     id="path4" />
</svg>

<svg xmlns="http://www.w3.org/2000/svg" viewBox="0 0 16 16">
 <path d="m 1.6 0 c -0.886 0 -1.6 0.713 -1.6 1.6 l 0 12.801 c 0 0.886 0.713 1.6 1.6 1.6 l 12.801 0 c 0.886 0 1.6 -0.713 1.6 -1.6 l 0 -12.801 c 0 -0.886 -0.713 -1.6 -1.6 -1.6 l -12.801 0 z m 2.971 4.859 l 0.539 0 c 0.222 0.462 0.433 0.923 0.631 1.385 c 0.198 0.462 0.396 0.945 0.594 1.449 c 0.204 0.498 0.411 1.03 0.621 1.594 c 0.21 0.558 0.438 1.161 0.684 1.809 l -0.674 0 c -0.114 -0.306 -0.222 -0.599 -0.324 -0.881 c -0.102 -0.282 -0.201 -0.558 -0.297 -0.828 l -3.033 0 c -0.102 0.27 -0.205 0.546 -0.307 0.828 c -0.102 0.282 -0.206 0.575 -0.314 0.881 l -0.639 0 c 0.24 -0.648 0.464 -1.251 0.674 -1.809 c 0.21 -0.564 0.415 -1.096 0.613 -1.594 c 0.204 -0.504 0.404 -0.987 0.602 -1.449 c 0.198 -0.462 0.409 -0.923 0.631 -1.385 z m 0.252 0.701 c -0.228 0.516 -0.45 1.042 -0.666 1.576 c -0.21 0.534 -0.428 1.109 -0.656 1.727 l 2.654 0 c -0.228 -0.618 -0.45 -1.193 -0.666 -1.727 c -0.216 -0.534 -0.438 -1.06 -0.666 -1.576 z m 5.262 0.793 c 0.192 0 0.371 0.015 0.539 0.045 c 0.174 0.03 0.295 0.06 0.361 0.09 l -0.117 0.504 c -0.048 -0.024 -0.147 -0.048 -0.297 -0.072 c -0.144 -0.03 -0.336 -0.045 -0.576 -0.045 c -0.252 0 -0.455 0.019 -0.611 0.055 c -0.15 0.036 -0.251 0.066 -0.299 0.09 l 0 4.076 l -0.584 0 l 0 -4.437 c 0.15 -0.066 0.357 -0.131 0.621 -0.197 c 0.264 -0.072 0.585 -0.107 0.963 -0.107 z m 2.566 2.4 c 0.425 0 0.748 0.151 0.967 0.451 c 0.222 0.296 0.332 0.712 0.332 1.246 c 0 0.815 -0.194 1.428 -0.584 1.842 c -0.39 0.41 -0.96 0.615 -1.709 0.615 l -0.012 -0.316 c 0.257 0 0.494 -0.029 0.709 -0.088 c 0.214 -0.059 0.399 -0.149 0.555 -0.27 c 0.16 -0.125 0.289 -0.282 0.387 -0.473 c 0.101 -0.195 0.17 -0.43 0.205 -0.703 c -0.105 0.055 -0.233 0.104 -0.381 0.146 c -0.148 0.039 -0.307 0.059 -0.475 0.059 c -0.218 0 -0.403 -0.033 -0.555 -0.1 c -0.152 -0.07 -0.276 -0.162 -0.369 -0.275 c -0.094 -0.113 -0.162 -0.242 -0.205 -0.391 c -0.043 -0.148 -0.064 -0.303 -0.064 -0.463 c 0 -0.148 0.024 -0.299 0.07 -0.451 c 0.047 -0.152 0.119 -0.287 0.217 -0.408 c 0.101 -0.125 0.227 -0.227 0.375 -0.305 c 0.152 -0.078 0.33 -0.117 0.537 -0.117 z m 0.006 0.334 c -0.144 0 -0.266 0.027 -0.367 0.082 c -0.101 0.051 -0.184 0.119 -0.246 0.205 c -0.062 0.086 -0.109 0.184 -0.141 0.297 c -0.027 0.113 -0.041 0.231 -0.041 0.352 c 0 0.308 0.069 0.537 0.205 0.686 c 0.14 0.148 0.344 0.221 0.613 0.221 c 0.179 0 0.336 -0.02 0.469 -0.059 c 0.136 -0.043 0.264 -0.09 0.381 -0.145 c 0.004 -0.047 0.006 -0.092 0.006 -0.135 c 0.004 -0.043 0.006 -0.092 0.006 -0.146 c 0 -0.183 -0.014 -0.358 -0.041 -0.521 c -0.023 -0.164 -0.07 -0.307 -0.141 -0.432 c -0.066 -0.125 -0.156 -0.223 -0.27 -0.293 c -0.113 -0.074 -0.258 -0.111 -0.434 -0.111 z" style="fill:#ececec;fill-opacity:1"/>
</svg>
